img/element3.svg

<svg width="21" height="20" viewBox="0 0 21 20" fill="none" xmlns="http://www.w3.org/2000/svg">
<path d="M13.6728 18.9121L12.7501 12.4686C12.7501 12.2176 12.9178 11.9665 13.1695 11.8828L19.6284 10.9624C19.88 10.9624 20.0478 10.7113 20.0478 10.3766L19.5445 6.77825C19.5445 6.5272 19.2928 6.35984 18.9573 6.35984L12.4984 7.28033C12.2467 7.28033 11.9951 7.11297 11.9113 6.86192L10.9885 0.41841C10.9885 0.167364 10.7369 0 10.4013 0L6.79442 0.502097C6.54277 0.502097 6.37501 0.753141 6.37501 1.08787L7.29774 7.53138C7.29774 7.78243 7.12998 8.03347 6.87833 8.11715L0.41941 9.03766C0.167764 9.03766 0 9.2887 0 9.62343L0.503271 13.2218C0.503271 13.4728 0.754928 13.6402 1.09046 13.6402L7.54938 12.7197C7.80102 12.7197 8.05268 12.887 8.13656 13.1381L9.05924 19.5816C9.05924 19.8326 9.3109 20 9.64643 20L13.2533 19.4979C13.505 19.4142 13.6728 19.1632 13.6728 18.9121Z" fill="#FDD08D"/>
</svg>

<svg width="21" height="20" fill="none" xmlns="http://www.w3.org/2000/svg"><path d="M13.673 18.912l-.923-6.443a.63.63 0 01.42-.586l6.458-.92c.252 0 .42-.252.42-.586l-.503-3.599c0-.25-.252-.418-.588-.418l-6.459.92a.63.63 0 01-.587-.418L10.99.418c0-.25-.252-.418-.588-.418L6.794.502c-.251 0-.419.251-.419.586l.923 6.443a.63.63 0 01-.42.586l-6.459.92c-.251 0-.419.252-.419.586l.503 3.599c0 .25.252.418.587.418l6.46-.92a.63.63 0 01.587.418l.922 6.444c0 .25.252.418.587.418l3.607-.502a.63.63 0 00.42-.586z" fill="#FDD08D"/></svg>
